icons/tokens/0x0316EB71485b0Ab14103307bf65a021042c6d380/logo.svg

<svg width="32" height="32" viewBox="0 0 32 32" fill="none" xmlns="http://www.w3.org/2000/svg">
<path fill-rule="evenodd" clip-rule="evenodd" d="M29.5444 22.7092C29.5444 17.6008 25.3951 13.4514 20.2867 13.4514C15.1782 13.4514 11.0284 17.6008 11.0284 22.7092C11.0284 27.8177 15.1782 31.9674 20.2867 31.9674C25.3951 31.9674 29.5444 27.8177 29.5444 22.7092Z" fill="#F7931A"/>
<path fill-rule="evenodd" clip-rule="evenodd" d="M24.3686 21.3905C24.5525 20.158 23.6152 19.4963 22.3328 19.0531L22.7487 17.385L21.7329 17.132L21.3272 18.7566C21.0606 18.69 20.7862 18.6269 20.5136 18.565L20.9206 16.9302L19.9065 16.6768L19.4889 18.3453L19.3838 18.3209L19.3838 18.3209C19.1997 18.2781 19.0183 18.236 18.8408 18.193L18.8425 18.1866L17.4406 17.8372L17.171 18.9225C17.209 18.931 17.9244 19.0957 17.9078 19.106C18.3191 19.2088 18.395 19.4814 18.3826 19.6968L17.2418 24.269C17.1919 24.394 17.0639 24.5813 16.776 24.5105C16.7861 24.5241 16.1956 24.368 16.0624 24.3327L16.0375 24.3262L15.5332 25.4883L16.8557 25.8185C16.9963 25.8536 17.1352 25.8899 17.2725 25.9258L17.2725 25.9258C17.3757 25.9528 17.4779 25.9796 17.5793 26.0054L17.1591 27.6931L18.1744 27.9461L18.5904 26.2763C18.8677 26.3518 19.1365 26.4209 19.3997 26.4857L18.9855 28.1483L20.0013 28.4013L20.4219 26.7165C22.1532 27.045 23.4569 26.9128 24.0056 25.3449C24.4471 24.0834 23.9825 23.356 23.0713 22.8812C23.7355 22.7289 24.2342 22.292 24.3686 21.3905ZM22.0478 24.6444C21.7593 25.8015 19.952 25.3253 19.1218 25.1065C19.0459 25.0865 18.9782 25.0687 18.9206 25.0544L19.4782 22.8176C19.5481 22.8351 19.6337 22.8543 19.7307 22.8761L19.7307 22.8761C20.589 23.0688 22.3414 23.4623 22.0478 24.6444ZM19.9006 21.8369C20.5913 22.0213 22.099 22.4239 22.3614 21.3726C22.6296 20.2952 21.1635 19.9708 20.4479 19.8124C20.3679 19.7947 20.2972 19.7791 20.2394 19.7647L19.7342 21.7933C19.7819 21.8052 19.8379 21.8201 19.9006 21.8369Z" fill="white"/>
<path fill-rule="evenodd" clip-rule="evenodd" d="M10.9035 4.62628C10.168 6.22484 8.95378 8.09133 7.48619 10.0175C6.01817 11.9438 4.29673 13.9293 3.27496 16.0326C2.25319 18.1358 1.93152 20.3564 2.01172 22.1977C2.09236 24.0386 2.57487 25.5002 3.56251 26.9704C4.55058 28.441 6.04377 29.9201 7.75795 30.7802C9.47256 31.6402 11.4077 31.8809 12.4107 31.964C13.4137 32.0472 13.4846 31.9726 13.5212 31.877C13.5579 31.7819 13.5605 31.665 13.2836 31.4022C13.0067 31.1398 12.4504 30.7311 11.7746 30.0523C11.0989 29.374 10.3032 28.4252 9.73408 26.9892C9.16496 25.5531 8.82196 23.6295 8.93331 21.9614C9.04465 20.2937 9.61036 18.8824 10.0634 17.7676C10.5165 16.6533 10.857 15.8359 11.1419 14.9357C11.4269 14.0355 11.6565 13.0526 11.9252 11.5124C12.1944 9.9719 12.5033 7.87418 12.645 6.11435C12.7866 4.35452 12.761 2.93215 12.7328 2.05458C12.7047 1.17743 12.6735 0.844237 12.6432 0.595088C12.6125 0.346365 12.5827 0.180834 12.5285 0.0878294C12.4747 -0.00517512 12.3971 -0.0256532 12.3301 0.0327946C12.2635 0.0912424 12.2077 0.228616 12.0515 0.962839C11.8954 1.69706 11.6385 3.02771 10.9035 4.62628Z" fill="url(#paint0_linear)"/>
<path fill-rule="evenodd" clip-rule="evenodd" d="M16.1181 8.01241C16.5264 8.60883 17.0422 9.20483 17.5349 9.7091C18.0281 10.2134 18.4978 10.6263 18.7674 10.8947C19.0375 11.1626 19.107 11.2863 19.0733 11.3559C19.0401 11.4254 18.9035 11.4416 18.5917 11.4834C18.2798 11.5257 17.793 11.5939 17.1565 11.777C16.5204 11.96 15.7346 12.2578 15.0997 12.582C14.4645 12.9067 13.9803 13.2582 13.6791 13.4796C13.3779 13.7015 13.2601 13.7928 13.1778 13.8209C13.095 13.8487 13.0477 13.8124 13.031 13.7202C13.0144 13.6277 13.0285 13.4792 13.1172 13.0991C13.206 12.7189 13.3698 12.1076 13.514 11.2599C13.6586 10.4126 13.7832 9.32855 13.8617 8.39381C13.9402 7.45908 13.9722 6.67366 14.0234 6.19626C14.0741 5.71844 14.1441 5.54907 14.2439 5.44583C14.3442 5.34216 14.4743 5.30504 14.5882 5.34344C14.7021 5.38183 14.7998 5.49532 14.8834 5.65445C14.9671 5.81358 15.0375 6.01793 15.223 6.41853C15.4086 6.81914 15.7094 7.41599 16.1181 8.01241Z" fill="url(#paint1_linear)"/>
<path fill-rule="evenodd" clip-rule="evenodd" d="M7.97127 30.8834C9.63084 31.6599 11.4491 31.8843 12.4107 31.964C13.4137 32.0472 13.4846 31.9726 13.5212 31.877C13.5579 31.7819 13.5605 31.665 13.2836 31.4022C13.0067 31.1398 12.4504 30.7311 11.7746 30.0523C11.0989 29.374 10.3032 28.4252 9.73409 26.9892C9.16497 25.5531 8.82196 23.6295 8.93331 21.9614C9.04466 20.2937 9.61037 18.8824 10.0634 17.7676C10.5165 16.6533 10.857 15.8359 11.142 14.9357C11.4269 14.0355 11.6565 13.0526 11.9252 11.5124C12.1944 9.9719 12.5033 7.87418 12.645 6.11435C12.7866 4.35452 12.761 2.93215 12.7328 2.05458C12.7128 1.43256 12.6915 1.084 12.6697 0.845093C12.7546 3.50724 12.1061 5.76622 11.348 7.76198C10.5895 9.75774 9.72129 11.4907 8.75669 13.1379C7.79166 14.7851 6.73021 16.347 5.89275 17.8999C5.05571 19.4528 4.44265 20.9968 4.25834 22.568C4.07361 24.1397 4.31807 25.7391 4.87098 27.1991C5.42389 28.659 6.28567 29.9794 7.97127 30.8834Z" fill="url(#paint2_linear)"/>
<path fill-rule="evenodd" clip-rule="evenodd" d="M14.0874 5.78369C13.9973 7.60752 14.4099 10.7095 16.2934 12.0636C15.8839 12.2159 15.4666 12.3947 15.0997 12.582C14.4645 12.9066 13.9803 13.2582 13.6791 13.4796C13.3779 13.7014 13.2601 13.7927 13.1778 13.8209C13.095 13.8486 13.0477 13.8124 13.031 13.7202C13.0144 13.6276 13.0285 13.4792 13.1172 13.099C13.206 12.7189 13.3698 12.1076 13.514 11.2599C13.6586 10.4126 13.7832 9.32853 13.8617 8.39379C13.9402 7.45905 13.9722 6.67363 14.0234 6.19624C14.0421 6.02132 14.063 5.88779 14.0874 5.78369Z" fill="url(#paint3_linear)"/>
<defs>
<linearGradient id="paint0_linear" x1="2" y1="0" x2="2" y2="32" gradientUnits="userSpaceOnUse">
<stop offset="8.19493e-05" stop-color="#6AA6FE"/>
<stop offset="1" stop-color="#236DFE"/>
</linearGradient>
<linearGradient id="paint1_linear" x1="10.2789" y1="5.32864" x2="10.2789" y2="21.5397" gradientUnits="userSpaceOnUse">
<stop offset="8.19493e-05" stop-color="#6AA6FE"/>
<stop offset="1" stop-color="#236DFE"/>
</linearGradient>
<linearGradient id="paint2_linear" x1="4.19745" y1="0.845093" x2="4.19745" y2="32" gradientUnits="userSpaceOnUse">
<stop stop-color="#6291F6"/>
<stop offset="1" stop-color="#072AE6"/>
</linearGradient>
<linearGradient id="paint3_linear" x1="11.6718" y1="5.78369" x2="11.6718" y2="20.4924" gradientUnits="userSpaceOnUse">
<stop stop-color="#6291F6"/>
<stop offset="1" stop-color="#072AE6"/>
</linearGradient>
</defs>
</svg>

<svg fill="none" viewBox="0 0 32 32"><path fill="#F7931A" fill-rule="evenodd" d="M29.544 22.71c0-5.11-4.149-9.259-9.257-9.259-5.109 0-9.259 4.15-9.259 9.258 0 5.109 4.15 9.258 9.259 9.258 5.108 0 9.257-4.15 9.257-9.258z" clip-rule="evenodd"/><path fill="#fff" fill-rule="evenodd" d="M24.369 21.39c.183-1.232-.754-1.894-2.036-2.337l.416-1.668-1.016-.253-.406 1.625a39.14 39.14 0 00-.813-.192l.407-1.635-1.014-.253-.418 1.668-.105-.024c-.184-.043-.366-.085-.543-.128l.002-.006-1.402-.35-.27 1.085c.038.009.753.174.737.184.411.103.487.375.475.59l-1.141 4.573c-.05.125-.178.312-.466.242.01.013-.58-.143-.714-.178l-.024-.007-.505 1.162 1.323.33.416.108.307.08-.42 1.687 1.015.253.416-1.67c.278.076.547.145.81.21l-.415 1.662 1.016.253.42-1.684c1.732.328 3.036.196 3.585-1.372.441-1.262-.023-1.989-.935-2.464.664-.152 1.163-.589 1.298-1.49zm-2.321 3.254c-.289 1.158-2.096.681-2.926.463l-.201-.053.557-2.236.253.058c.858.193 2.61.586 2.317 1.768zM19.9 21.837c.69.184 2.198.587 2.46-.464.269-1.078-1.198-1.402-1.913-1.56l-.209-.048-.505 2.028.167.044z" clip-rule="evenodd"/><path fill="url(#paint0_linear)" fill-rule="evenodd" d="M10.903 4.626c-.735 1.599-1.95 3.465-3.417 5.391-1.468 1.927-3.19 3.912-4.211 6.016-1.022 2.103-1.343 4.323-1.263 6.165.08 1.84.563 3.302 1.55 4.772.989 1.471 2.482 2.95 4.196 3.81 1.715.86 3.65 1.1 4.653 1.184 1.003.083 1.074.009 1.11-.087.037-.095.04-.212-.237-.475-.277-.262-.834-.67-1.51-1.35-.675-.678-1.47-1.627-2.04-3.063-.569-1.436-.912-3.36-.8-5.028.11-1.667.676-3.079 1.13-4.193.453-1.115.793-1.932 1.078-2.832.285-.9.514-1.883.783-3.424.27-1.54.578-3.638.72-5.398a35.53 35.53 0 00.088-4.06c-.028-.877-.06-1.21-.09-1.459-.03-.249-.06-.414-.115-.507-.053-.093-.13-.114-.198-.055-.066.058-.122.196-.278.93-.157.734-.413 2.065-1.149 3.663z" clip-rule="evenodd"/><path fill="url(#paint1_linear)" fill-rule="evenodd" d="M16.118 8.012c.408.597.924 1.193 1.417 1.697s.963.917 1.232 1.186c.27.268.34.391.306.46-.033.07-.17.087-.481.128a9.52 9.52 0 00-1.435.294c-.637.183-1.422.48-2.057.805a9.954 9.954 0 00-1.42.898c-.302.221-.42.313-.502.34-.083.029-.13-.008-.147-.1-.017-.092-.003-.24.086-.62.089-.381.253-.992.397-1.84.145-.847.27-1.931.348-2.866.078-.935.11-1.72.161-2.198.051-.478.121-.647.22-.75.101-.104.231-.141.345-.103.114.039.212.152.295.311.084.16.155.364.34.765.186.4.486.997.895 1.593z" clip-rule="evenodd"/><path fill="url(#paint2_linear)" fill-rule="evenodd" d="M7.971 30.883c1.66.777 3.478 1.001 4.44 1.081 1.003.083 1.074.009 1.11-.087.037-.095.04-.212-.237-.475-.277-.262-.834-.67-1.51-1.35-.675-.678-1.47-1.627-2.04-3.063-.569-1.436-.912-3.36-.8-5.028.11-1.667.676-3.079 1.13-4.193.453-1.115.793-1.932 1.078-2.832.285-.9.514-1.883.783-3.424.27-1.54.578-3.638.72-5.398a35.53 35.53 0 00.088-4.06c-.02-.621-.042-.97-.063-1.209.085 2.662-.564 4.921-1.322 6.917a35.263 35.263 0 01-2.591 5.376c-.965 1.647-2.027 3.209-2.864 4.762-.837 1.553-1.45 3.097-1.635 4.668-.184 1.572.06 3.171.613 4.631.553 1.46 1.415 2.78 3.1 3.684z" clip-rule="evenodd"/><path fill="url(#paint3_linear)" fill-rule="evenodd" d="M14.087 5.784c-.09 1.824.323 4.926 2.206 6.28-.41.152-.826.33-1.193.518a9.954 9.954 0 00-1.42.898c-.302.221-.42.313-.502.34-.083.029-.13-.008-.147-.1-.017-.092-.003-.24.086-.621.089-.38.253-.991.397-1.84.145-.846.27-1.93.348-2.865.078-.935.11-1.72.161-2.198.02-.175.04-.308.064-.412z" clip-rule="evenodd"/><defs><linearGradient id="paint0_linear" x1="2" x2="2" y1="0" y2="32" gradientUnits="userSpaceOnUse"><stop offset="0" stop-color="#6AA6FE"/><stop offset="1" stop-color="#236DFE"/></linearGradient><linearGradient id="paint1_linear" x1="10.279" x2="10.279" y1="5.329" y2="21.54" gradientUnits="userSpaceOnUse"><stop offset="0" stop-color="#6AA6FE"/><stop offset="1" stop-color="#236DFE"/></linearGradient><linearGradient id="paint2_linear" x1="4.197" x2="4.197" y1=".845" y2="32" gradientUnits="userSpaceOnUse"><stop stop-color="#6291F6"/><stop offset="1" stop-color="#072AE6"/></linearGradient><linearGradient id="paint3_linear" x1="11.672" x2="11.672" y1="5.784" y2="20.492" gradientUnits="userSpaceOnUse"><stop stop-color="#6291F6"/><stop offset="1" stop-color="#072AE6"/></linearGradient></defs></svg>
